icons/circle/48/postr.svg

<svg xmlns="http://www.w3.org/2000/svg" viewBox="0 0 48 48">
 <defs>
  <linearGradient id="linearGradient3764" x1="1" x2="47" gradientUnits="userSpaceOnUse" gradientTransform="matrix(0,-1,1,0,-1.5e-6,47.999998)">
   <stop style="stop-color:#e4e4e4;stop-opacity:1"/>
   <stop offset="1" style="stop-color:#eee;stop-opacity:1"/>
  </linearGradient>
 </defs>
 <g>
  <path d="m 36.31 5 c 5.859 4.062 9.688 10.831 9.688 18.5 c 0 12.426 -10.07 22.5 -22.5 22.5 c -7.669 0 -14.438 -3.828 -18.5 -9.688 c 1.037 1.822 2.306 3.499 3.781 4.969 c 4.085 3.712 9.514 5.969 15.469 5.969 c 12.703 0 23 -10.298 23 -23 c 0 -5.954 -2.256 -11.384 -5.969 -15.469 c -1.469 -1.475 -3.147 -2.744 -4.969 -3.781 z m 4.969 3.781 c 3.854 4.113 6.219 9.637 6.219 15.719 c 0 12.703 -10.297 23 -23 23 c -6.081 0 -11.606 -2.364 -15.719 -6.219 c 4.16 4.144 9.883 6.719 16.219 6.719 c 12.703 0 23 -10.298 23 -23 c 0 -6.335 -2.575 -12.06 -6.719 -16.219 z" style="opacity:0.05"/>
  <path d="m 41.28 8.781 c 3.712 4.085 5.969 9.514 5.969 15.469 c 0 12.703 -10.297 23 -23 23 c -5.954 0 -11.384 -2.256 -15.469 -5.969 c 4.113 3.854 9.637 6.219 15.719 6.219 c 12.703 0 23 -10.298 23 -23 c 0 -6.081 -2.364 -11.606 -6.219 -15.719 z" style="opacity:0.1"/>
  <path d="m 31.25 2.375 c 8.615 3.154 14.75 11.417 14.75 21.13 c 0 12.426 -10.07 22.5 -22.5 22.5 c -9.708 0 -17.971 -6.135 -21.12 -14.75 a 23 23 0 0 0 44.875 -7 a 23 23 0 0 0 -16 -21.875 z" style="opacity:0.2"/>
 </g>
 <g>
  <path d="m 24 1 c -12.703 0 -23 10.297 -23 23 c 0 9.889 6.242 18.319 15 21.568 c 0.001 0 0.001 0 0.002 0 l 15.996 0 c 0.001 0 0.001 0 0.002 0 c 8.758 -3.25 15 -11.679 15 -21.568 c 0 -12.703 -10.297 -23 -23 -23 z" style="fill:url(#linearGradient3764);fill-opacity:1"/>
  <path d="m 25 15 l -19.984 21.982 c 0.004 0.006 0.008 0.012 0.012 0.018 l 11.973 0 l 0 8.912 c 2.208 0.705 4.559 1.088 7 1.088 c 3.194 0 6.236 -0.652 9 -1.828 l 0 -8.172 l 9.973 0 c 0.293 -0.427 0.57 -0.866 0.834 -1.313 l -6.766 -7.443 c 0.604 -0.936 0.959 -2.048 0.959 -3.244 c 0 -3.312 -2.687 -6 -6 -6 c -0.993 0 -1.927 0.245 -2.752 0.672 l -4.248 -4.672 z" style="fill:#000;fill-opacity:0.098"/>
  <path d="m 24 14 l -19.771 21.748 c 0.05 0.084 0.098 0.169 0.148 0.252 l 11.623 0 l 0 9.568 c 2.492 0.925 5.186 1.432 8 1.432 c 2.814 0 5.508 -0.507 8 -1.432 l 0 -9.568 l 11.623 0 c 0.051 -0.083 0.099 -0.168 0.148 -0.252 l -19.771 -21.748 z" style="fill:#b9bab9;fill-opacity:1"/>
 </g>
 <g>
  <g>
   <g transform="translate(1,1)">
    <g style="opacity:0.1">
     <!-- color: #eeeeee -->
    </g>
   </g>
  </g>
 </g>
 <g>
  <g>
   <!-- color: #eeeeee -->
   <g>
    <path d="m 23 24 c 0 3.313 -2.688 6 -6 6 c -3.313 0 -6 -2.688 -6 -6 c 0 -3.313 2.688 -6 6 -6 c 3.313 0 6 2.688 6 6 m 0 0" style="fill:#6292c1;fill-opacity:1;stroke:none;fill-rule:nonzero"/>
    <path d="m 37 24 c 0 3.313 -2.688 6 -6 6 c -3.313 0 -6 -2.688 -6 -6 c 0 -3.313 2.688 -6 6 -6 c 3.313 0 6 2.688 6 6 m 0 0" style="fill:#f142a4;fill-opacity:1;stroke:none;fill-rule:nonzero"/>
   </g>
  </g>
 </g>
 <g>
  <path d="m 40.03 7.531 c 3.712 4.084 5.969 9.514 5.969 15.469 0 12.703 -10.297 23 -23 23 c -5.954 0 -11.384 -2.256 -15.469 -5.969 4.178 4.291 10.01 6.969 16.469 6.969 c 12.703 0 23 -10.298 23 -23 0 -6.462 -2.677 -12.291 -6.969 -16.469 z" style="opacity:0.1"/>
 </g>
</svg>

<svg xmlns="http://www.w3.org/2000/svg" viewBox="0 0 48 48">
  <defs>
    <linearGradient id="a" x1="1" x2="47" gradientUnits="userSpaceOnUse" gradientTransform="rotate(-90 24 24)">
      <stop stop-color="#e4e4e4"/>
      <stop offset="1" stop-color="#eee"/>
    </linearGradient>
  </defs>
  <path d="M36.31 5c5.859 4.062 9.688 10.831 9.688 18.5 0 12.426-10.07 22.5-22.5 22.5-7.669 0-14.438-3.828-18.5-9.688a23.24 23.24 0 0 0 3.781 4.969 22.923 22.923 0 0 0 15.469 5.969c12.703 0 23-10.298 23-23a22.92 22.92 0 0 0-5.969-15.469A23.216 23.216 0 0 0 36.31 5zm4.969 3.781A22.911 22.911 0 0 1 47.498 24.5c0 12.703-10.297 23-23 23a22.909 22.909 0 0 1-15.719-6.219C12.939 45.425 18.662 48 24.998 48c12.703 0 23-10.298 23-23 0-6.335-2.575-12.06-6.719-16.219z" opacity=".05"/>
  <path d="M41.28 8.781a22.923 22.923 0 0 1 5.969 15.469c0 12.703-10.297 23-23 23A22.92 22.92 0 0 1 8.78 41.281 22.911 22.911 0 0 0 24.499 47.5c12.703 0 23-10.298 23-23A22.909 22.909 0 0 0 41.28 8.781z" opacity=".1"/>
  <path d="M31.25 2.375C39.865 5.529 46 13.792 46 23.505c0 12.426-10.07 22.5-22.5 22.5-9.708 0-17.971-6.135-21.12-14.75a23 23 0 0 0 44.875-7 23 23 0 0 0-16-21.875z" opacity=".2"/>
  <path d="M24 1C11.297 1 1 11.297 1 24c0 9.889 6.242 18.319 15 21.568h16C40.758 42.318 47 33.889 47 24 47 11.297 36.703 1 24 1z" fill="url(#a)"/>
  <path d="M25 15L5.016 36.982l.012.018h11.973v8.912a22.973 22.973 0 0 0 7 1.088c3.194 0 6.236-.652 9-1.828V37h9.973c.293-.427.57-.866.834-1.313l-6.766-7.443A5.963 5.963 0 0 0 38.001 25c0-3.312-2.687-6-6-6-.993 0-1.927.245-2.752.672L25.001 15z" fill-opacity=".098"/>
  <path d="M24 14L4.229 35.748c.05.084.098.169.148.252H16v9.568A22.939 22.939 0 0 0 24 47c2.814 0 5.508-.507 8-1.432V36h11.623c.051-.083.099-.168.148-.252L24 14z" fill="#b9bab9"/>
  <g>
    <path d="M23 24c0 3.313-2.688 6-6 6-3.313 0-6-2.688-6-6 0-3.313 2.688-6 6-6 3.313 0 6 2.688 6 6m0 0" fill="#6292c1"/>
    <path d="M37 24c0 3.313-2.688 6-6 6-3.313 0-6-2.688-6-6 0-3.313 2.688-6 6-6 3.313 0 6 2.688 6 6m0 0" fill="#f142a4"/>
  </g>
  <g>
    <path d="M40.03 7.531A22.922 22.922 0 0 1 45.999 23c0 12.703-10.297 23-23 23A22.92 22.92 0 0 1 7.53 40.031C11.708 44.322 17.54 47 23.999 47c12.703 0 23-10.298 23-23 0-6.462-2.677-12.291-6.969-16.469z" opacity=".1"/>
  </g>
</svg>
